static/img/kroki/1a34b513ebaf59de861a2fe4c37384e4.svg

<?xml version="1.0" encoding="us-ascii" standalone="no"?><svg xmlns="http://www.w3.org/2000/svg" xmlns:xlink="http://www.w3.org/1999/xlink" contentStyleType="text/css" height="252px" preserveAspectRatio="none" style="width:898px;height:252px;" version="1.1" viewBox="0 0 898 252" width="898px" zoomAndPan="magnify"><defs/><g><!--class aws_cloudwatch_alarm--><g id="elem_aws_cloudwatch_alarm"><rect codeLine="23" fill="#3D176E" height="39.7891" id="aws_cloudwatch_alarm" rx="2.5" ry="2.5" style="stroke:#000D19;stroke-width:0.5;" width="237" x="307" y="206.58"/><ellipse cx="322" cy="226.4745" fill="#ADD1B2" rx="11" ry="11" style="stroke:#181818;stroke-width:1.0;"/><path d="M324.9688,232.1152 Q324.3906,232.412 323.75,232.5527 Q323.1094,232.7089 322.4063,232.7089 Q319.9063,232.7089 318.5781,231.0683 Q317.2656,229.412 317.2656,226.287 Q317.2656,223.162 318.5781,221.5058 Q319.9063,219.8495 322.4063,219.8495 Q323.1094,219.8495 323.75,220.0058 Q324.4063,220.162 324.9688,220.4589 L324.9688,223.1777 Q324.3438,222.5995 323.75,222.3339 Q323.1563,222.0527 322.5313,222.0527 Q321.1875,222.0527 320.5,223.1308 Q319.8125,224.1933 319.8125,226.287 Q319.8125,228.3808 320.5,229.4589 Q321.1875,230.5214 322.5313,230.5214 Q323.1563,230.5214 323.75,230.2558 Q324.3438,229.9745 324.9688,229.3964 L324.9688,232.1152 Z " fill="#000000"/><text fill="#D9B8FF" font-family="Helvetica" font-size="17" lengthAdjust="spacing" textLength="195" x="341" y="232.3598">aws_cloudwatch_alarm</text></g><!--class aws_cloudwatch_metric_filter--><g id="elem_aws_cloudwatch_metric_filter"><rect codeLine="26" fill="#3D176E" height="39.7891" id="aws_cloudwatch_metric_filter" rx="2.5" ry="2.5" style="stroke:#000D19;stroke-width:0.5;" width="291" x="7" y="106.79"/><ellipse cx="22" cy="126.6845" fill="#ADD1B2" rx="11" ry="11" style="stroke:#181818;stroke-width:1.0;"/><path d="M24.9688,132.3252 Q24.3906,132.622 23.75,132.7627 Q23.1094,132.9189 22.4063,132.9189 Q19.9063,132.9189 18.5781,131.2783 Q17.2656,129.622 17.2656,126.497 Q17.2656,123.372 18.5781,121.7158 Q19.9063,120.0595 22.4063,120.0595 Q23.1094,120.0595 23.75,120.2158 Q24.4063,120.372 24.9688,120.6689 L24.9688,123.3877 Q24.3438,122.8095 23.75,122.5439 Q23.1563,122.2627 22.5313,122.2627 Q21.1875,122.2627 20.5,123.3408 Q19.8125,124.4033 19.8125,126.497 Q19.8125,128.5908 20.5,129.6689 Q21.1875,130.7314 22.5313,130.7314 Q23.1563,130.7314 23.75,130.4658 Q24.3438,130.1845 24.9688,129.6064 L24.9688,132.3252 Z " fill="#000000"/><text fill="#D9B8FF" font-family="Helvetica" font-size="17" lengthAdjust="spacing" textLength="249" x="41" y="132.5698">aws_cloudwatch_metric_filter</text></g><!--class aws_ec2_instance--><g id="elem_aws_ec2_instance"><rect codeLine="29" fill="#3D176E" height="39.7891" id="aws_ec2_instance" rx="2.5" ry="2.5" style="stroke:#000D19;stroke-width:0.5;" width="192" x="404.5" y="106.79"/><ellipse cx="419.5" cy="126.6845" fill="#ADD1B2" rx="11" ry="11" style="stroke:#181818;stroke-width:1.0;"/><path d="M422.4688,132.3252 Q421.8906,132.622 421.25,132.7627 Q420.6094,132.9189 419.9063,132.9189 Q417.4063,132.9189 416.0781,131.2783 Q414.7656,129.622 414.7656,126.497 Q414.7656,123.372 416.0781,121.7158 Q417.4063,120.0595 419.9063,120.0595 Q420.6094,120.0595 421.25,120.2158 Q421.9063,120.372 422.4688,120.6689 L422.4688,123.3877 Q421.8438,122.8095 421.25,122.5439 Q420.6563,122.2627 420.0313,122.2627 Q418.6875,122.2627 418,123.3408 Q417.3125,124.4033 417.3125,126.497 Q417.3125,128.5908 418,129.6689 Q418.6875,130.7314 420.0313,130.7314 Q420.6563,130.7314 421.25,130.4658 Q421.8438,130.1845 422.4688,129.6064 L422.4688,132.3252 Z " fill="#000000"/><text fill="#D9B8FF" font-family="Helvetica" font-size="17" lengthAdjust="spacing" textLength="150" x="438.5" y="132.5698">aws_ec2_instance</text></g><!--class aws_region--><g id="elem_aws_region"><rect codeLine="32" fill="#3D176E" height="39.7891" id="aws_region" rx="2.5" ry="2.5" style="stroke:#000D19;stroke-width:0.5;" width="137" x="357" y="7"/><ellipse cx="372" cy="26.8945" fill="#ADD1B2" rx="11" ry="11" style="stroke:#181818;stroke-width:1.0;"/><path d="M374.9688,32.5352 Q374.3906,32.832 373.75,32.9727 Q373.1094,33.1289 372.4063,33.1289 Q369.9063,33.1289 368.5781,31.4883 Q367.2656,29.832 367.2656,26.707 Q367.2656,23.582 368.5781,21.9258 Q369.9063,20.2695 372.4063,20.2695 Q373.1094,20.2695 373.75,20.4258 Q374.4063,20.582 374.9688,20.8789 L374.9688,23.5977 Q374.3438,23.0195 373.75,22.7539 Q373.1563,22.4727 372.5313,22.4727 Q371.1875,22.4727 370.5,23.5508 Q369.8125,24.6133 369.8125,26.707 Q369.8125,28.8008 370.5,29.8789 Q371.1875,30.9414 372.5313,30.9414 Q373.1563,30.9414 373.75,30.6758 Q374.3438,30.3945 374.9688,29.8164 L374.9688,32.5352 Z " fill="#000000"/><text fill="#D9B8FF" font-family="Helvetica" font-size="17" lengthAdjust="spacing" textLength="95" x="391" y="32.7798">aws_region</text></g><!--class aws_sagemaker_endpoint--><g id="elem_aws_sagemaker_endpoint"><rect codeLine="35" fill="#3D176E" height="39.7891" id="aws_sagemaker_endpoint" rx="2.5" ry="2.5" style="stroke:#000D19;stroke-width:0.5;" width="259" x="632" y="106.79"/><ellipse cx="647" cy="126.6845" fill="#ADD1B2" rx="11" ry="11" style="stroke:#181818;stroke-width:1.0;"/><path d="M649.9688,132.3252 Q649.3906,132.622 648.75,132.7627 Q648.1094,132.9189 647.4063,132.9189 Q644.9063,132.9189 643.5781,131.2783 Q642.2656,129.622 642.2656,126.497 Q642.2656,123.372 643.5781,121.7158 Q644.9063,120.0595 647.4063,120.0595 Q648.1094,120.0595 648.75,120.2158 Q649.4063,120.372 649.9688,120.6689 L649.9688,123.3877 Q649.3438,122.8095 648.75,122.5439 Q648.1563,122.2627 647.5313,122.2627 Q646.1875,122.2627 645.5,123.3408 Q644.8125,124.4033 644.8125,126.497 Q644.8125,128.5908 645.5,129.6689 Q646.1875,130.7314 647.5313,130.7314 Q648.1563,130.7314 648.75,130.4658 Q649.3438,130.1845 649.9688,129.6064 L649.9688,132.3252 Z " fill="#000000"/><text fill="#D9B8FF" font-family="Helvetica" font-size="17" lengthAdjust="spacing" textLength="217" x="666" y="132.5698">aws_sagemaker_endpoint</text></g><!--link aws_cloudwatch_metric_filter to aws_cloudwatch_alarm--><g id="link_aws_cloudwatch_metric_filter_aws_cloudwatch_alarm"><path codeLine="38" d="M206.44,147.01 C254.3,164.15 318.2017,187.0359 366.0317,204.1759 " fill="none" id="aws_cloudwatch_metric_filter-to-aws_cloudwatch_alarm" style="stroke:#1A83AF;stroke-width:2.0;"/><polygon fill="#1A83AF" points="371.68,206.2,364.557,199.3984,366.9731,204.5133,361.8582,206.9294,371.68,206.2" style="stroke:#1A83AF;stroke-width:2.0;"/></g><!--link aws_ec2_instance to aws_cloudwatch_alarm--><g id="link_aws_ec2_instance_aws_cloudwatch_alarm"><path codeLine="39" d="M485.68,147.01 C472.53,164.15 457.0805,184.2983 443.9405,201.4383 " fill="none" id="aws_ec2_instance-to-aws_cloudwatch_alarm" style="stroke:#1A83AF;stroke-width:2.0;"/><polygon fill="#1A83AF" points="440.29,206.2,448.9402,201.4911,443.3321,202.2319,442.5912,196.6238,440.29,206.2" style="stroke:#1A83AF;stroke-width:2.0;"/></g><!--link aws_region to aws_cloudwatch_alarm--><g id="link_aws_region_aws_cloudwatch_alarm"><path codeLine="40" d="M412.9,47.05 C403.55,62.46 391.58,85.07 386.5,106.79 C382.48,124.01 382.48,129.36 386.5,146.58 C391.58,168.3 400.4391,185.7795 409.7891,201.1995 " fill="none" id="aws_region-to-aws_cloudwatch_alarm" style="stroke:#1A83AF;stroke-width:2.0;"/><polygon fill="#1A83AF" points="412.9,206.33,411.654,196.5603,410.3076,202.0546,404.8133,200.7082,412.9,206.33" style="stroke:#1A83AF;stroke-width:2.0;"/></g><!--link aws_region to aws_ec2_instance--><g id="link_aws_region_aws_ec2_instance"><path codeLine="41" d="M440.32,47.22 C453.47,64.36 468.9195,84.5083 482.0595,101.6483 " fill="none" id="aws_region-to-aws_ec2_instance" style="stroke:#1A83AF;stroke-width:2.0;"/><polygon fill="#1A83AF" points="485.71,106.41,483.4088,96.8338,482.6679,102.4419,477.0598,101.7011,485.71,106.41" style="stroke:#1A83AF;stroke-width:2.0;"/></g><!--link aws_sagemaker_endpoint to aws_cloudwatch_alarm--><g id="link_aws_sagemaker_endpoint_aws_cloudwatch_alarm"><path codeLine="42" d="M695.12,147.01 C636.31,164.12 556.651,187.3034 497.791,204.4334 " fill="none" id="aws_sagemaker_endpoint-to-aws_cloudwatch_alarm" style="stroke:#1A83AF;stroke-width:2.0;"/><polygon fill="#1A83AF" points="492.03,206.11,501.7892,207.4357,496.8308,204.7128,499.5537,199.7544,492.03,206.11" style="stroke:#1A83AF;stroke-width:2.0;"/></g><!--SRC=[fP9DImCn48Rl-oi2FHUwBThs8go5efSYrfl8Caqcks4toJ99NQhutsrjbPZjX-1rtYTvdmafbK26kl4Rfb6la5pYAcKQ8D0i8xBjpDQMM4zAaADn7CwjyHU11MXaTrY_ebSSOkAfLBmow1mR1j4jyAeWkpPYVxqdC6uReV41DQl1kSnxKgkrnq16J5SJAMColhGt4kdu6ZkO9O5qG0Q3WKYdCNAnwkpUFyHIlI5BmqTRM8yTpKx55tNMSaS4afr5l_EJZWyWX385kmfcZtidCaY_viiIX6rtj8JQXJNE8w7rcmPddQrmEX5oV1I-FmKdVFTq35gNyzgkHGkUbpdKG9gz9yd7yLpZzeVmNAfwsn1po8UvCiw3uHXdX8Mo9fuwA513XPIZ4OrLnk-9iwtzvrwQJKRP_AL_SzG_wSZyxSZ1yNzms9kSsF5omoS0]--></g></svg>

<svg xmlns="http://www.w3.org/2000/svg" width="898" height="252" viewBox="0 0 898 252"><rect width="237" height="39.789" x="307" y="206.58" fill="#3D176E" rx="2.5" ry="2.5" style="stroke:#000d19;stroke-width:.5"/><circle cx="322" cy="226.475" r="11" fill="#ADD1B2" style="stroke:#181818;stroke-width:1"/><path d="M324.969 232.115q-.578.297-1.219.438-.64.156-1.344.156-2.5 0-3.828-1.64-1.312-1.657-1.312-4.782t1.312-4.781q1.328-1.656 3.828-1.656.703 0 1.344.156.656.156 1.219.453v2.719q-.625-.578-1.219-.844-.594-.281-1.219-.281-1.344 0-2.031 1.078-.687 1.062-.687 3.156t.687 3.172q.688 1.062 2.031 1.062.625 0 1.219-.265.594-.281 1.219-.86z"/><text x="341" y="232.36" fill="#D9B8FF" font-family="Helvetica" font-size="17" textLength="195">aws_cloudwatch_alarm</text><rect width="291" height="39.789" x="7" y="106.79" fill="#3D176E" rx="2.5" ry="2.5" style="stroke:#000d19;stroke-width:.5"/><circle cx="22" cy="126.684" r="11" fill="#ADD1B2" style="stroke:#181818;stroke-width:1"/><path d="M24.969 132.325q-.578.297-1.219.438-.64.156-1.344.156-2.5 0-3.828-1.64-1.312-1.657-1.312-4.782t1.312-4.781q1.328-1.656 3.828-1.656.703 0 1.344.156.656.156 1.219.453v2.719q-.625-.579-1.219-.844-.594-.281-1.219-.281-1.343 0-2.031 1.078-.687 1.062-.687 3.156t.687 3.172q.688 1.062 2.031 1.062.625 0 1.219-.265.594-.281 1.219-.86z"/><text x="41" y="132.57" fill="#D9B8FF" font-family="Helvetica" font-size="17" textLength="249">aws_cloudwatch_metric_filter</text><rect width="192" height="39.789" x="404.5" y="106.79" fill="#3D176E" rx="2.5" ry="2.5" style="stroke:#000d19;stroke-width:.5"/><circle cx="419.5" cy="126.684" r="11" fill="#ADD1B2" style="stroke:#181818;stroke-width:1"/><path d="M422.469 132.325q-.578.297-1.219.438-.64.156-1.344.156-2.5 0-3.828-1.64-1.312-1.657-1.312-4.782t1.312-4.781q1.328-1.656 3.828-1.656.703 0 1.344.156.656.156 1.219.453v2.719q-.625-.579-1.219-.844-.594-.281-1.219-.281-1.344 0-2.031 1.078-.687 1.062-.687 3.156t.687 3.172q.688 1.062 2.031 1.062.625 0 1.219-.265.594-.281 1.219-.86z"/><text x="438.5" y="132.57" fill="#D9B8FF" font-family="Helvetica" font-size="17" textLength="150">aws_ec2_instance</text><rect width="137" height="39.789" x="357" y="7" fill="#3D176E" rx="2.5" ry="2.5" style="stroke:#000d19;stroke-width:.5"/><circle cx="372" cy="26.895" r="11" fill="#ADD1B2" style="stroke:#181818;stroke-width:1"/><path d="M374.969 32.535q-.578.297-1.219.438-.64.156-1.344.156-2.5 0-3.828-1.64-1.312-1.657-1.312-4.782t1.312-4.781q1.328-1.656 3.828-1.656.703 0 1.344.156.656.156 1.219.453v2.719q-.625-.578-1.219-.844-.594-.281-1.219-.281-1.344 0-2.031 1.078-.687 1.062-.687 3.156t.687 3.172q.688 1.062 2.031 1.062.625 0 1.219-.265.594-.281 1.219-.86z"/><text x="391" y="32.78" fill="#D9B8FF" font-family="Helvetica" font-size="17" textLength="95">aws_region</text><rect width="259" height="39.789" x="632" y="106.79" fill="#3D176E" rx="2.5" ry="2.5" style="stroke:#000d19;stroke-width:.5"/><circle cx="647" cy="126.684" r="11" fill="#ADD1B2" style="stroke:#181818;stroke-width:1"/><path d="M649.969 132.325q-.578.297-1.219.438-.64.156-1.344.156-2.5 0-3.828-1.64-1.312-1.657-1.312-4.782t1.312-4.781q1.328-1.656 3.828-1.656.703 0 1.344.156.656.156 1.219.453v2.719q-.625-.579-1.219-.844-.594-.281-1.219-.281-1.343 0-2.031 1.078-.687 1.062-.687 3.156t.687 3.172q.688 1.062 2.031 1.062.625 0 1.219-.265.594-.281 1.219-.86z"/><text x="666" y="132.57" fill="#D9B8FF" font-family="Helvetica" font-size="17" textLength="217">aws_sagemaker_endpoint</text><path fill="none" d="M206.44 147.01a946875 946875 0 0 1 159.592 57.166" style="stroke:#1a83af;stroke-width:2"/><path fill="#1A83AF" d="m371.68 206.2-7.123-6.802 2.416 5.115-5.115 2.416z" style="stroke:#1a83af;stroke-width:2"/><path fill="none" d="M485.68 147.01c-13.15 17.14-28.6 37.288-41.74 54.428" style="stroke:#1a83af;stroke-width:2"/><path fill="#1A83AF" d="m440.29 206.2 8.65-4.709-5.608.74-.74-5.607z" style="stroke:#1a83af;stroke-width:2"/><path fill="none" d="M412.9 47.05c-9.35 15.41-21.32 38.02-26.4 59.74-4.02 17.22-4.02 22.57 0 39.79 5.08 21.72 13.94 39.2 23.29 54.62" style="stroke:#1a83af;stroke-width:2"/><path fill="#1A83AF" d="m412.9 206.33-1.246-9.77-1.346 5.495-5.495-1.347z" style="stroke:#1a83af;stroke-width:2"/><path fill="none" d="M440.32 47.22c13.15 17.14 28.6 37.288 41.74 54.428" style="stroke:#1a83af;stroke-width:2"/><path fill="#1A83AF" d="m485.71 106.41-2.301-9.576-.741 5.608-5.608-.74z" style="stroke:#1a83af;stroke-width:2"/><path fill="none" d="M695.12 147.01c-58.81 17.11-138.469 40.293-197.329 57.423" style="stroke:#1a83af;stroke-width:2"/><path fill="#1A83AF" d="m492.03 206.11 9.76 1.326-4.96-2.723 2.724-4.959z" style="stroke:#1a83af;stroke-width:2"/></svg>
